flaticon/programming-line/mobile-programming.svg

<svg xmlns="http://www.w3.org/2000/svg" width="32" height="32" viewBox="0 0 24 24">
    <path d="M 16.882812 0 L 7.117188 0 C 6.09375 0 5.261719 0.832031 5.261719 1.855469 L 5.261719 22.144531 C 5.261719 23.167969 6.09375 24 7.117188 24 L 16.882812 24 C 17.90625 24 18.738281 23.167969 18.738281 22.144531 L 18.738281 1.855469 C 18.738281 0.832031 17.90625 0 16.882812 0 Z M 5.964844 3.710938 L 18.035156 3.710938 L 18.035156 6.011719 L 5.964844 6.011719 Z M 5.964844 6.714844 L 18.035156 6.714844 L 18.035156 20.289062 L 5.964844 20.289062 Z M 7.117188 0.703125 L 16.882812 0.703125 C 17.519531 0.703125 18.035156 1.222656 18.035156 1.855469 L 18.035156 3.007812 L 5.964844 3.007812 L 5.964844 1.855469 C 5.964844 1.222656 6.480469 0.703125 7.117188 0.703125 Z M 16.882812 23.296875 L 7.117188 23.296875 C 6.480469 23.296875 5.964844 22.777344 5.964844 22.144531 L 5.964844 20.992188 L 18.035156 20.992188 L 18.035156 22.144531 C 18.035156 22.777344 17.519531 23.296875 16.882812 23.296875 Z M 16.882812 23.296875"/>
    <path d="M10.871094 2.207031L13.128906 2.207031C13.320312 2.207031 13.480469 2.050781 13.480469 1.855469 13.480469 1.660156 13.320312 1.503906 13.128906 1.503906L10.871094 1.503906C10.679688 1.503906 10.519531 1.660156 10.519531 1.855469 10.519531 2.050781 10.679688 2.207031 10.871094 2.207031zM12.75 21.792969L11.25 21.792969C11.054688 21.792969 10.894531 21.949219 10.894531 22.144531 10.894531 22.339844 11.054688 22.496094 11.25 22.496094L12.75 22.496094C12.945312 22.496094 13.105469 22.339844 13.105469 22.144531 13.105469 21.949219 12.945312 21.792969 12.75 21.792969zM9.371094 2.207031C9.460938 2.207031 9.554688 2.167969 9.617188 2.105469 9.683594 2.039062 9.722656 1.949219 9.722656 1.855469 9.722656 1.761719 9.683594 1.671875 9.617188 1.605469 9.554688 1.539062 9.460938 1.503906 9.371094 1.503906 9.277344 1.503906 9.1875 1.539062 9.121094 1.605469 9.054688 1.671875 9.019531 1.761719 9.019531 1.855469 9.019531 1.949219 9.054688 2.039062 9.121094 2.105469 9.1875 2.167969 9.277344 2.207031 9.371094 2.207031zM7.992188 14.503906C8.0625 14.570312 8.152344 14.605469 8.242188 14.605469 8.332031 14.605469 8.421875 14.574219 8.492188 14.503906L11.121094 11.875C11.257812 11.734375 11.257812 11.511719 11.121094 11.375L8.492188 8.746094C8.355469 8.609375 8.132812 8.609375 7.992188 8.746094 7.855469 8.882812 7.855469 9.105469 7.992188 9.242188L10.375 11.625 7.992188 14.003906C7.855469 14.144531 7.855469 14.367188 7.992188 14.503906zM11.625 14.605469L15.382812 14.605469C15.574219 14.605469 15.734375 14.449219 15.734375 14.253906 15.734375 14.058594 15.574219 13.902344 15.382812 13.902344L11.625 13.902344C11.429688 13.902344 11.273438 14.058594 11.273438 14.253906 11.273438 14.449219 11.429688 14.605469 11.625 14.605469zM8.992188 16.53125L7.492188 16.53125C7.089844 16.53125 6.761719 16.859375 6.761719 17.261719L6.761719 18.761719C6.761719 19.164062 7.089844 19.492188 7.492188 19.492188L8.992188 19.492188C9.394531 19.492188 9.722656 19.164062 9.722656 18.761719L9.722656 17.261719C9.722656 16.859375 9.394531 16.53125 8.992188 16.53125zM9.019531 18.761719C9.019531 18.777344 9.007812 18.785156 8.992188 18.785156L7.492188 18.785156C7.476562 18.785156 7.46875 18.777344 7.46875 18.761719L7.46875 17.261719C7.46875 17.246094 7.476562 17.238281 7.492188 17.238281L8.992188 17.238281C9.007812 17.238281 9.019531 17.246094 9.019531 17.261719zM12.75 16.53125L11.25 16.53125C10.847656 16.53125 10.519531 16.859375 10.519531 17.261719L10.519531 18.761719C10.519531 19.164062 10.847656 19.492188 11.25 19.492188L12.75 19.492188C13.152344 19.492188 13.480469 19.164062 13.480469 18.761719L13.480469 17.261719C13.480469 16.859375 13.152344 16.53125 12.75 16.53125zM12.773438 18.761719C12.773438 18.777344 12.765625 18.785156 12.75 18.785156L11.25 18.785156C11.234375 18.785156 11.226562 18.777344 11.226562 18.761719L11.226562 17.261719C11.226562 17.246094 11.234375 17.238281 11.25 17.238281L12.75 17.238281C12.765625 17.238281 12.773438 17.246094 12.773438 17.261719zM16.507812 16.53125L15.007812 16.53125C14.605469 16.53125 14.277344 16.859375 14.277344 17.261719L14.277344 18.761719C14.277344 19.164062 14.605469 19.492188 15.007812 19.492188L16.507812 19.492188C16.910156 19.492188 17.238281 19.164062 17.238281 18.761719L17.238281 17.261719C17.238281 16.859375 16.910156 16.53125 16.507812 16.53125zM16.53125 18.761719C16.53125 18.777344 16.523438 18.785156 16.507812 18.785156L15.007812 18.785156C14.992188 18.785156 14.980469 18.777344 14.980469 18.761719L14.980469 17.261719C14.980469 17.246094 14.992188 17.238281 15.007812 17.238281L16.507812 17.238281C16.523438 17.238281 16.53125 17.246094 16.53125 17.261719zM7.492188 4.507812L7.117188 4.507812C6.921875 4.507812 6.761719 4.667969 6.761719 4.859375 6.761719 5.054688 6.921875 5.214844 7.117188 5.214844L7.492188 5.214844C7.6875 5.214844 7.84375 5.054688 7.84375 4.859375 7.84375 4.667969 7.6875 4.507812 7.492188 4.507812zM16.882812 4.507812L16.507812 4.507812C16.3125 4.507812 16.15625 4.667969 16.15625 4.859375 16.15625 5.054688 16.3125 5.214844 16.507812 5.214844L16.882812 5.214844C17.078125 5.214844 17.238281 5.054688 17.238281 4.859375 17.238281 4.667969 17.078125 4.507812 16.882812 4.507812zM14.957031 4.507812L8.992188 4.507812C8.800781 4.507812 8.640625 4.667969 8.640625 4.859375 8.640625 5.054688 8.800781 5.214844 8.992188 5.214844L14.957031 5.214844C15.152344 5.214844 15.3125 5.054688 15.3125 4.859375 15.3125 4.667969 15.152344 4.507812 14.957031 4.507812zM14.957031 4.507812"/>
</svg>

<svg xmlns="http://www.w3.org/2000/svg" width="32" height="32" viewBox="0 0 24 24">
    <path d="M16.883 0H7.117a1.857 1.857 0 0 0-1.855 1.855v20.29c0 1.023.832 1.855 1.855 1.855h9.766a1.857 1.857 0 0 0 1.855-1.855V1.855A1.857 1.857 0 0 0 16.883 0zM5.965 3.71h12.07v2.302H5.965zm0 3.005h12.07v13.574H5.965zM7.117.703h9.766c.637 0 1.152.52 1.152 1.152v1.153H5.965V1.855c0-.632.515-1.152 1.152-1.152zm9.766 22.594H7.117c-.637 0-1.152-.52-1.152-1.152v-1.153h12.07v1.153c0 .632-.515 1.152-1.152 1.152zm0 0"/>
    <path d="M10.871 2.207h2.258a.353.353 0 0 0 .351-.352.353.353 0 0 0-.351-.351H10.87a.353.353 0 0 0-.351.351c0 .196.16.352.351.352zm0 0M12.75 21.793h-1.5a.353.353 0 0 0-.355.352c0 .195.16.351.355.351h1.5a.353.353 0 0 0 .355-.351.353.353 0 0 0-.355-.352zm0 0M9.371 2.207a.355.355 0 0 0 .352-.352.355.355 0 0 0-.352-.351.351.351 0 0 0-.25.101.351.351 0 0 0-.101.25c0 .094.035.184.101.25a.369.369 0 0 0 .25.102zm0 0M7.992 14.504c.07.066.16.101.25.101s.18-.03.25-.101l2.63-2.629a.356.356 0 0 0 0-.5l-2.63-2.629a.356.356 0 0 0-.5 0 .351.351 0 0 0 0 .496l2.383 2.383-2.383 2.379a.356.356 0 0 0 0 .5zm0 0M11.625 14.605h3.758a.353.353 0 0 0 .351-.351.353.353 0 0 0-.351-.352h-3.758a.35.35 0 0 0-.352.352.35.35 0 0 0 .352.351zm0 0M8.992 16.531h-1.5a.732.732 0 0 0-.73.73v1.5c0 .403.328.731.73.731h1.5c.403 0 .73-.328.73-.73v-1.5a.732.732 0 0 0-.73-.73zm.028 2.23c0 .016-.012.024-.028.024h-1.5c-.015 0-.023-.008-.023-.023v-1.5c0-.016.008-.024.023-.024h1.5c.016 0 .028.008.028.024zm0 0M12.75 16.531h-1.5a.732.732 0 0 0-.73.73v1.5c0 .403.328.731.73.731h1.5c.402 0 .73-.328.73-.73v-1.5a.732.732 0 0 0-.73-.73zm.023 2.23c0 .016-.007.024-.023.024h-1.5c-.016 0-.023-.008-.023-.023v-1.5c0-.016.007-.024.023-.024h1.5c.016 0 .023.008.023.024zm0 0M16.508 16.531h-1.5a.732.732 0 0 0-.73.73v1.5c0 .403.327.731.73.731h1.5c.402 0 .73-.328.73-.73v-1.5a.732.732 0 0 0-.73-.73zm.023 2.23c0 .016-.008.024-.023.024h-1.5c-.016 0-.028-.008-.028-.023v-1.5c0-.016.012-.024.028-.024h1.5c.015 0 .023.008.023.024zm0 0M7.492 4.508h-.375a.356.356 0 0 0-.355.351c0 .196.16.356.355.356h.375a.353.353 0 0 0 0-.707zm0 0M16.883 4.508h-.375a.353.353 0 1 0 0 .707h.375c.195 0 .355-.16.355-.356a.356.356 0 0 0-.355-.351zm0 0M14.957 4.508H8.992a.355.355 0 0 0-.351.351c0 .196.16.356.351.356h5.965c.195 0 .355-.16.355-.356a.356.356 0 0 0-.355-.351zm0 0"/>
</svg>
